X:90
%%etbk:tnset id:31,pos:3,rep:3x,ant:
%%etbk:wsite http://www.thesession.org/tunes/display/634
%%etbk:color #ffe6e6
%%etbk:pldat 2014-12-07T13:04
T: Galway Rambler, The
Z: Piano Box Version by Martin Fleischmann
H: Created 2013-02-19 /  Last Modified 2014-12-07
M: 4/4
L: 1/8
R: reel
K: Gmaj
"G"!1!G2!4!dG !5!eG!4!dG | !3!(3G!2!G!1!G !5!d!1!G "D"!3!AG!1!E!2!F | "G"!1!G3A !3!B2!1!B!2!d | "D"!5!g!3!e!2!d!1!B !3!A!2!G!1!E!2!F |
"G"!1!G2!4!dG !5!eG!4!dG | !3!(3G!2!G!1!G !5!d!1!G "D"!3!AG!1!E!2!F | "G"!1!G3A !3!B2!1!B!2!d | "D"!5!g!3!e!2!d!1!B !1!A3!2!f ||
"G"!3!gggb "D"!4!a3b | "G"!3!g2bg !4!agef | !3!gggb "D"!4!a3!1!d | !5!g!3!e!2!d!1!B !1!A3!2!f | 
"G"!3!g2bg !3!gabg | !3!gabg "D"!4!aaga | "G"!5!b!3!ggg !2!e!4!g!3!f!5!a | "D"!4!g!2!e!1!d!3!B !2!A!1!G!2!E!3!F||


